X:18847
T:Winster Gallop
M:2/4
L:1/16
R:Polka
K:G
G2B2 G2B2 | G2B2 d4 | A2Bc B2A2 | G2B2 d4 | c2e2 g3e | d2B2 d4 | A2Bc B2
A2 | G4G4 :|
g2f2 e2d2 | g2f2 e2d2 | g2f2 e2d2 c2B2 A4 | f2e2 d4 f2e2 d4
| d4 A3c | B2G2 G4 :|


